;START_OF_HEADER
;HEADER_VERSION:0.1
;FLAVOR:Griffin
;GENERATOR.NAME:Cura_SteamEngine
;GENERATOR.VERSION:2.6.2
;GENERATOR.BUILD_DATE:2017-07-06
;TARGET_MACHINE.NAME:Ultimaker 3
;EXTRUDER_TRAIN.0.INITIAL_TEMPERATURE:205
;EXTRUDER_TRAIN.0.MATERIAL.VOLUME_USED:1244
;EXTRUDER_TRAIN.0.MATERIAL.GUID:506c9f0d-e3aa-4bd4-b2d2-23e2425b1aa9
;EXTRUDER_TRAIN.0.NOZZLE.DIAMETER:0.4
;BUILD_PLATE.INITIAL_TEMPERATURE:60
;PRINT.TIME:644
;PRINT.SIZE.MIN.X:9
;PRINT.SIZE.MIN.Y:6
;PRINT.SIZE.MIN.Z:0.27
;PRINT.SIZE.MAX.X:137.375
;PRINT.SIZE.MAX.Y:118.375
;PRINT.SIZE.MAX.Z:2.07
;END_OF_HEADER
;Generated with Cura_SteamEngine 2.6.2

T0
G92 E0

M109 S205
G0 F15000 X9 Y6 Z2
G280
G1 F1500 E-6.5
;LAYER_COUNT:10
;LAYER:0
M107
M204 S625
M205 X6
G0 F4285.7 X135.337 Y116.946 Z0.27
G0 X135.217 Y117.045
M204 S500
M205 X5
;TYPE:SKIRT
G1 F1500 E0
G1 F1200 X134.492 Y117.549 E0.01308
G1 X134.354 Y117.628 E0.01544
G1 X133.483 Y118.023 E0.0296
G1 X133.339 Y118.074 E0.03187
G1 X132.546 Y118.277 E0.04399
G1 X132.404 Y118.301 E0.04612
G1 X131.582 Y118.372 E0.05835
G1 X131.507 Y118.375 E0.05946
G1 X101.492 Y118.375 E0.50408
G1 X101.408 Y118.371 E0.50533
G1 X100.494 Y118.283 E0.51893
G1 X100.347 Y118.256 E0.52114
G1 X99.541 Y118.035 E0.53352
G1 X99.393 Y117.98 E0.53586
G1 X98.562 Y117.581 E0.54952
G1 X98.435 Y117.506 E0.5517
G1 X97.775 Y117.038 E0.56369
G1 X97.661 Y116.941 E0.5659
G1 X97.046 Y116.323 E0.57882
G1 X96.947 Y116.205 E0.5811
G1 X96.432 Y115.463 E0.59448
G1 X96.352 Y115.32 E0.59691
G1 X95.975 Y114.473 E0.61064
G1 X95.927 Y114.335 E0.6128
G1 X95.721 Y113.535 E0.62504
G1 X95.696 Y113.391 E0.62721
G1 X95.628 Y112.586 E0.63917
G1 X95.625 Y112.512 E0.64027
G1 X95.625 Y102.49 E0.78873
G1 X95.629 Y102.405 E0.78999
G1 X95.718 Y101.488 E0.80364
G1 X95.745 Y101.342 E0.80584
G1 X95.961 Y100.554 E0.81794
G1 X96.016 Y100.407 E0.82027
G1 X96.421 Y99.561 E0.83416
G1 X96.496 Y99.433 E0.83636
G1 X96.962 Y98.776 E0.84829
G1 X97.058 Y98.662 E0.8505
G1 X97.677 Y98.045 E0.86344
G1 X97.796 Y97.946 E0.86574
G1 X98.535 Y97.433 E0.87906
G1 X98.678 Y97.353 E0.88149
G1 X99.527 Y96.975 E0.89526
G1 X99.665 Y96.927 E0.89742
G1 X100.465 Y96.721 E0.90966
G1 X100.61 Y96.696 E0.91184
G1 X101.42 Y96.628 E0.92388
G1 X101.493 Y96.625 E0.92496
G1 X131.508 Y96.625 E1.36958
G1 X131.592 Y96.629 E1.37083
G1 X132.506 Y96.717 E1.38443
G1 X132.653 Y96.744 E1.38665
G1 X133.448 Y96.962 E1.39886
G1 X133.589 Y97.014 E1.40108
G1 X134.38 Y97.385 E1.41403
G1 X134.51 Y97.46 E1.41625
G1 X135.222 Y97.958 E1.42912
G1 X135.339 Y98.056 E1.43138
G1 X135.946 Y98.663 E1.4441
G1 X136.046 Y98.783 E1.44641
G1 X136.553 Y99.513 E1.45958
G1 X136.631 Y99.651 E1.46192
G1 X137.025 Y100.522 E1.47609
G1 X137.076 Y100.667 E1.47836
G1 X137.28 Y101.467 E1.49059
G1 X137.304 Y101.609 E1.49273
G1 X137.372 Y102.414 E1.50469
G1 X137.375 Y102.488 E1.50579
G1 X137.375 Y112.51 E1.65425
G1 X137.371 Y112.594 E1.65549
G1 X137.283 Y113.507 E1.66908
G1 X137.256 Y113.653 E1.67128
G1 X137.04 Y114.444 E1.68343
G1 X136.988 Y114.586 E1.68567
G1 X136.615 Y115.38 E1.69866
G1 X136.54 Y115.509 E1.70087
G1 X136.044 Y116.219 E1.7137
G1 X135.946 Y116.337 E1.71597
G1 X135.337 Y116.946 E1.72873
G1 X135.217 Y117.045 E1.73104
M204 S625
M205 X6
G0 F4285.7 X135.089 Y116.698
M204 S500
M205 X5
G1 F1200 X135.018 Y116.758 E1.73241
G1 X134.293 Y117.262 E1.74549
G1 X134.21 Y117.309 E1.74691
G1 X133.339 Y117.704 E1.76107
G1 X133.252 Y117.735 E1.76244
G1 X132.459 Y117.938 E1.77457
G1 X132.374 Y117.952 E1.77584
G1 X131.552 Y118.023 E1.78807
G1 X131.507 Y118.025 E1.78873
G1 X101.492 Y118.025 E2.23335
G1 X101.442 Y118.023 E2.2341
G1 X100.528 Y117.935 E2.2477
G1 X100.439 Y117.918 E2.24904
G1 X99.633 Y117.697 E2.26142
G1 X99.545 Y117.664 E2.26281
G1 X98.714 Y117.265 E2.27647
G1 X98.637 Y117.22 E2.27779
G1 X97.977 Y116.752 E2.28977
G1 X97.909 Y116.694 E2.2911
G1 X97.294 Y116.076 E2.30401
G1 X97.235 Y116.005 E2.30538
G1 X96.72 Y115.263 E2.31876
G1 X96.671 Y115.177 E2.32023
G1 X96.294 Y114.33 E2.33396
G1 X96.266 Y114.248 E2.33524
G1 X96.06 Y113.448 E2.34748
G1 X96.045 Y113.361 E2.34879
G1 X95.977 Y112.556 E2.36076
G1 X95.975 Y112.512 E2.36141
G1 X95.975 Y102.49 E2.50987
G1 X95.977 Y102.439 E2.51062
G1 X96.066 Y101.522 E2.52427
G1 X96.083 Y101.434 E2.5256
G1 X96.299 Y100.646 E2.5377
G1 X96.331 Y100.558 E2.53909
G1 X96.736 Y99.712 E2.55298
G1 X96.782 Y99.635 E2.55431
G1 X97.248 Y98.978 E2.56624
G1 X97.305 Y98.91 E2.56756
G1 X97.924 Y98.293 E2.58051
G1 X97.996 Y98.234 E2.58188
G1 X98.735 Y97.721 E2.59521
G1 X98.82 Y97.672 E2.59666
G1 X99.669 Y97.294 E2.61043
G1 X99.752 Y97.266 E2.61173
G1 X100.552 Y97.06 E2.62397
G1 X100.639 Y97.045 E2.62527
G1 X101.449 Y96.977 E2.63731
G1 X101.493 Y96.975 E2.63797
G1 X131.508 Y96.975 E3.08259
G1 X131.558 Y96.977 E3.08333
G1 X132.472 Y97.065 E3.09693
G1 X132.561 Y97.082 E3.09827
G1 X133.356 Y97.3 E3.11048
G1 X133.44 Y97.331 E3.11181
G1 X134.231 Y97.702 E3.12475
G1 X134.309 Y97.747 E3.12609
G1 X135.021 Y98.245 E3.13896
G1 X135.091 Y98.304 E3.14031
G1 X135.698 Y98.911 E3.15303
G1 X135.758 Y98.983 E3.15442
G1 X136.265 Y99.713 E3.16758
G1 X136.312 Y99.796 E3.169
G1 X136.706 Y100.667 E3.18316
G1 X136.737 Y100.753 E3.18451
G1 X136.941 Y101.553 E3.19674
G1 X136.955 Y101.639 E3.19803
G1 X137.023 Y102.444 E3.21
G1 X137.025 Y102.488 E3.21065
G1 X137.025 Y112.51 E3.35911
G1 X137.023 Y112.56 E3.35985
G1 X136.935 Y113.473 E3.37344
G1 X136.918 Y113.561 E3.37477
G1 X136.702 Y114.352 E3.38691
G1 X136.671 Y114.437 E3.38826
G1 X136.298 Y115.231 E3.40125
G1 X136.253 Y115.309 E3.40258
G1 X135.757 Y116.019 E3.41541
G1 X135.698 Y116.089 E3.41677
G1 X135.089 Y116.698 E3.42953
M204 S625
M205 X6
G0 F4285.7 X134.818 Y116.471
M204 S500
M205 X5
G1 F1200 X134.093 Y116.975 E3.44261
G1 X134.065 Y116.99 E3.44308
G1 X133.194 Y117.385 E3.45725
G1 X133.165 Y117.396 E3.4577
G1 X132.372 Y117.599 E3.46983
G1 X132.344 Y117.603 E3.47025
G1 X131.522 Y117.674 E3.48247
G1 X131.507 Y117.675 E3.48269
G1 X101.492 Y117.675 E3.92732
G1 X101.475 Y117.674 E3.92757
G1 X100.561 Y117.586 E3.94117
G1 X100.532 Y117.581 E3.94161
G1 X99.726 Y117.36 E3.95399
G1 X99.696 Y117.349 E3.95446
G1 X98.865 Y116.95 E3.96811
G1 X98.84 Y116.935 E3.96855
G1 X98.18 Y116.467 E3.98053
G1 X98.157 Y116.447 E3.98098
G1 X97.542 Y115.829 E3.9939
G1 X97.522 Y115.806 E3.99435
G1 X97.007 Y115.064 E4.00773
G1 X96.991 Y115.035 E4.00822
G1 X96.614 Y114.188 E4.02195
G1 X96.605 Y114.161 E4.02238
G1 X96.399 Y113.361 E4.03461
G1 X96.394 Y113.332 E4.03505
G1 X96.326 Y112.527 E4.04702
G1 X96.325 Y112.512 E4.04724
G1 X96.325 Y102.49 E4.1957
G1 X96.326 Y102.473 E4.19595
G1 X96.415 Y101.556 E4.2096
G1 X96.42 Y101.527 E4.21003
G1 X96.636 Y100.739 E4.22214
G1 X96.647 Y100.709 E4.22261
G1 X97.052 Y99.863 E4.2365
G1 X97.067 Y99.838 E4.23694
G1 X97.533 Y99.181 E4.24887
G1 X97.552 Y99.158 E4.24931
G1 X98.171 Y98.541 E4.26226
G1 X98.195 Y98.521 E4.26272
G1 X98.934 Y98.008 E4.27605
G1 X98.963 Y97.992 E4.27654
G1 X99.812 Y97.614 E4.2903
G1 X99.839 Y97.605 E4.29072
G1 X100.639 Y97.399 E4.30296
G1 X100.668 Y97.394 E4.3034
G1 X101.478 Y97.326 E4.31544
G1 X101.493 Y97.325 E4.31566
G1 X131.508 Y97.325 E4.76028
G1 X131.525 Y97.326 E4.76054
G1 X132.439 Y97.414 E4.77414
G1 X132.468 Y97.419 E4.77457
G1 X133.263 Y97.637 E4.78678
G1 X133.291 Y97.648 E4.78723
G1 X134.082 Y98.019 E4.80017
G1 X134.108 Y98.034 E4.80062
G1 X134.82 Y98.532 E4.81349
G1 X134.844 Y98.551 E4.81394
G1 X135.451 Y99.158 E4.82666
G1 X135.471 Y99.182 E4.82712
G1 X135.978 Y99.912 E4.84029
G1 X135.993 Y99.94 E4.84076
G1 X136.387 Y100.811 E4.85492
G1 X136.398 Y100.84 E4.85538
G1 X136.602 Y101.64 E4.86761
G1 X136.606 Y101.668 E4.86803
G1 X136.674 Y102.473 E4.87999
G1 X136.675 Y102.488 E4.88022
G1 X136.675 Y112.51 E5.02867
G1 X136.674 Y112.527 E5.02893
G1 X136.586 Y113.44 E5.04251
G1 X136.581 Y113.469 E5.04295
G1 X136.365 Y114.26 E5.0551
G1 X136.354 Y114.288 E5.05554
G1 X135.981 Y115.082 E5.06854
G1 X135.966 Y115.108 E5.06898
G1 X135.47 Y115.818 E5.08181
G1 X135.451 Y115.842 E5.08226
G1 X134.842 Y116.451 E5.09502
G1 X134.818 Y116.471 E5.09549
M204 S625
M205 X6
G0 F4285.7 X134.612 Y116.186
M204 S500
M205 X5
;TYPE:WALL-OUTER
G1 F1200 X133.912 Y116.676 E5.10814
G1 X133.147 Y117.033 E5.12065
G1 X133.069 Y117.059 E5.12187
G1 X132.294 Y117.258 E5.13372
G1 X131.497 Y117.325 E5.14557
G1 X101.502 Y117.325 E5.58989
G1 X100.709 Y117.259 E5.60168
G1 X100.614 Y117.241 E5.60311
G1 X99.841 Y117.029 E5.61499
G1 X99.109 Y116.689 E5.62694
G1 X99.039 Y116.647 E5.62815
G1 X98.402 Y116.196 E5.63971
G1 X97.804 Y115.598 E5.65224
G1 X97.358 Y114.967 E5.66369
G1 X97.309 Y114.887 E5.66508
G1 X96.969 Y114.156 E5.67702
G1 X96.942 Y114.07 E5.67835
G1 X96.742 Y113.294 E5.69022
G1 X96.675 Y112.5 E5.70203
G1 X96.675 Y102.5 E5.85016
G1 X96.74 Y101.712 E5.86187
G1 X96.76 Y101.61 E5.86341
G1 X96.968 Y100.852 E5.87506
G1 X97.282 Y100.178 E5.88607
G1 X97.356 Y100.034 E5.88847
G1 X97.804 Y99.402 E5.89995
G1 X98.402 Y98.804 E5.91247
G1 X99.032 Y98.358 E5.92391
G1 X99.113 Y98.309 E5.92531
G1 X99.844 Y97.969 E5.93725
G1 X99.93 Y97.942 E5.93859
G1 X100.706 Y97.742 E5.95046
G1 X101.503 Y97.675 E5.96231
G1 X131.498 Y97.675 E6.40663
G1 X132.291 Y97.741 E6.41842
G1 X132.386 Y97.759 E6.41985
G1 X133.148 Y97.968 E6.43156
G1 X133.912 Y98.324 E6.44404
G1 X134.614 Y98.816 E6.45674
G1 X135.186 Y99.388 E6.46872
G1 X135.679 Y100.093 E6.48147
G1 X136.026 Y100.832 E6.49356
G1 X136.059 Y100.931 E6.49511
G1 X136.258 Y101.706 E6.50696
G1 X136.325 Y102.5 E6.51876
G1 X136.325 Y112.5 E6.6669
G1 X136.26 Y113.288 E6.67861
G1 X136.241 Y113.386 E6.68009
G1 X136.033 Y114.147 E6.69177
G1 X135.676 Y114.912 E6.70428
G1 X135.186 Y115.612 E6.71694
G1 X134.612 Y116.186 E6.72896
M204 S625
M205 X6
G0 F4285.7 X134.449 Y116.3
G0 X134.206 Y115.952
G0 X129.557 Y112.339
G0 X129.21 Y112.095
M204 S500
M205 X5
G1 F1200 X129.302 Y111.963 E6.73134
G1 X129.37 Y111.817 E6.73373
G1 X129.412 Y111.66 E6.73614
G1 X129.426 Y111.5 E6.73852
G1 X129.412 Y111.34 E6.7409
G1 X129.37 Y111.183 E6.7433
G1 X129.302 Y111.037 E6.74569
G1 X129.21 Y110.905 E6.74807
G1 X129.095 Y110.79 E6.75048
G1 X128.963 Y110.698 E6.75287
G1 X128.817 Y110.63 E6.75525
G1 X128.66 Y110.588 E6.75766
G1 X128.5 Y110.574 E6.76004
G1 X128.34 Y110.588 E6.76242
G1 X128.183 Y110.63 E6.76482
G1 X128.037 Y110.698 E6.76721
G1 X127.905 Y110.79 E6.76959
G1 X127.79 Y110.905 E6.772
G1 X127.698 Y111.037 E6.77439
G1 X127.63 Y111.183 E6.77677
G1 X127.588 Y111.34 E6.77918
G1 X127.574 Y111.5 E6.78156
G1 X127.588 Y111.66 E6.78394
G1 X127.63 Y111.817 E6.78635
G1 X127.698 Y111.963 E6.78873
G1 X127.79 Y112.095 E6.79112
G1 X127.905 Y112.21 E6.79352
G1 X128.037 Y112.302 E6.79591
G1 X128.183 Y112.37 E6.79829
G1 X128.34 Y112.412 E6.8007
G1 X128.5 Y112.426 E6.80308
G1 X128.66 Y112.412 E6.80546
G1 X128.817 Y112.37 E6.80787
G1 X128.963 Y112.302 E6.81025
G1 X129.095 Y112.21 E6.81264
G1 X129.21 Y112.095 E6.81505
M204 S625
M205 X6
G0 F4285.7 X129.302 Y111.963
G0 X129.318 Y111.927
G0 X129.703 Y112.107
G0 X129.772 Y111.277
G0 X128.465 Y104.849
G0 X128.5 Y104.426
M204 S500
M205 X5
G1 F1200 X128.66 Y104.412 E6.81742
G1 X128.817 Y104.37 E6.81983
G1 X128.963 Y104.302 E6.82222
G1 X129.095 Y104.21 E6.8246
G1 X129.21 Y104.095 E6.82701
G1 X129.302 Y103.963 E6.82939
G1 X129.37 Y103.817 E6.83178
G1 X129.412 Y103.66 E6.83419
G1 X129.426 Y103.5 E6.83657
G1 X129.412 Y103.34 E6.83895
G1 X129.37 Y103.183 E6.84135
G1 X129.302 Y103.037 E6.84374
G1 X129.21 Y102.905 E6.84612
G1 X129.095 Y102.79 E6.84853
G1 X128.963 Y102.698 E6.85091
G1 X128.817 Y102.63 E6.8533
G1 X128.66 Y102.588 E6.85571
G1 X128.5 Y102.574 E6.85809
G1 X128.34 Y102.588 E6.86047
G1 X128.183 Y102.63 E6.86287
G1 X128.037 Y102.698 E6.86526
G1 X127.905 Y102.79 E6.86764
G1 X127.79 Y102.905 E6.87005
G1 X127.698 Y103.037 E6.87244
G1 X127.63 Y103.183 E6.87482
G1 X127.588 Y103.34 E6.87723
G1 X127.574 Y103.5 E6.87961
G1 X127.588 Y103.66 E6.88199
G1 X127.63 Y103.817 E6.88439
G1 X127.698 Y103.963 E6.88678
G1 X127.79 Y104.095 E6.88916
G1 X127.905 Y104.21 E6.89157
G1 X128.037 Y104.302 E6.89396
G1 X128.183 Y104.37 E6.89634
G1 X128.34 Y104.412 E6.89875
G1 X128.5 Y104.426 E6.90113
M204 S625
M205 X6
G0 F4285.7 X128.66 Y104.412
G0 X128.698 Y104.402
G0 X128.805 Y104.813
G0 X128.277 Y104.772
G0 X121.835 Y103.697
G0 X121.412 Y103.66
M204 S500
M205 X5
G1 F1200 X121.426 Y103.5 E6.90351
G1 X121.412 Y103.34 E6.90589
G1 X121.37 Y103.183 E6.90829
G1 X121.302 Y103.037 E6.91068
G1 X121.21 Y102.905 E6.91306
G1 X121.095 Y102.79 E6.91547
G1 X120.963 Y102.698 E6.91786
G1 X120.817 Y102.63 E6.92024
G1 X120.66 Y102.588 E6.92265
G1 X120.5 Y102.574 E6.92503
G1 X120.34 Y102.588 E6.92741
G1 X120.183 Y102.63 E6.92982
G1 X120.037 Y102.698 E6.9322
G1 X119.905 Y102.79 E6.93459
G1 X119.79 Y102.905 E6.93699
G1 X119.698 Y103.037 E6.93938
G1 X119.63 Y103.183 E6.94176
G1 X119.588 Y103.34 E6.94417
G1 X119.574 Y103.5 E6.94655
G1 X119.588 Y103.66 E6.94893
G1 X119.63 Y103.817 E6.95134
G1 X119.698 Y103.963 E6.95372
G1 X119.79 Y104.095 E6.95611
G1 X119.905 Y104.21 E6.95852
G1 X120.037 Y104.302 E6.9609
G1 X120.183 Y104.37 E6.96328
G1 X120.34 Y104.412 E6.96569
G1 X120.5 Y104.426 E6.96807
G1 X120.66 Y104.412 E6.97045
G1 X120.817 Y104.37 E6.97286
G1 X120.963 Y104.302 E6.97524
G1 X121.095 Y104.21 E6.97763
G1 X121.21 Y104.095 E6.98004
G1 X121.302 Y103.963 E6.98242
G1 X121.37 Y103.817 E6.98481
G1 X121.412 Y103.66 E6.98721
M204 S625
M205 X6
G0 F4285.7 X121.426 Y103.5
G0 X121.423 Y103.46
G0 X121.847 Y103.424
G0 X120.697 Y110.165
G0 X120.66 Y110.588
M204 S500
M205 X5
G1 F1200 X120.5 Y110.574 E6.98959
G1 X120.34 Y110.588 E6.99197
G1 X120.183 Y110.63 E6.99438
G1 X120.037 Y110.698 E6.99676
G1 X119.905 Y110.79 E6.99915
G1 X119.79 Y110.905 E7.00156
G1 X119.698 Y111.037 E7.00394
G1 X119.63 Y111.183 E7.00633
G1 X119.588 Y111.34 E7.00873
G1 X119.574 Y111.5 E7.01111
G1 X119.588 Y111.66 E7.01349
G1 X119.63 Y111.817 E7.0159
G1 X119.698 Y111.963 E7.01829
G1 X119.79 Y112.095 E7.02067
G1 X119.905 Y112.21 E7.02308
G1 X120.037 Y112.302 E7.02546
G1 X120.183 Y112.37 E7.02785
G1 X120.34 Y112.412 E7.03025
G1 X120.5 Y112.426 E7.03263
G1 X120.66 Y112.412 E7.03501
G1 X120.817 Y112.37 E7.03742
G1 X120.963 Y112.302 E7.03981
G1 X121.095 Y112.21 E7.04219
G1 X121.21 Y112.095 E7.0446
G1 X121.302 Y111.963 E7.04698
G1 X121.37 Y111.817 E7.04937
G1 X121.412 Y111.66 E7.05178
G1 X121.426 Y111.5 E7.05415
G1 X121.412 Y111.34 E7.05653
G1 X121.37 Y111.183 E7.05894
G1 X121.302 Y111.037 E7.06133
G1 X121.21 Y110.905 E7.06371
G1 X121.095 Y110.79 E7.06612
G1 X120.963 Y110.698 E7.0685
G1 X120.817 Y110.63 E7.07089
G1 X120.66 Y110.588 E7.0733
M204 S625
M205 X6
G0 F4285.7 X120.5 Y110.574
G0 X120.46 Y110.577
G0 X120.424 Y110.153
G0 X113.836 Y111.303
G0 X113.412 Y111.34
M204 S500
M205 X5
G1 F1200 X113.37 Y111.183 E7.0757
G1 X113.302 Y111.037 E7.07809
G1 X113.21 Y110.905 E7.08047
G1 X113.095 Y110.79 E7.08288
G1 X112.963 Y110.698 E7.08527
G1 X112.817 Y110.63 E7.08765
G1 X112.66 Y110.588 E7.09006
G1 X112.5 Y110.574 E7.09244
G1 X112.34 Y110.588 E7.09482
G1 X112.183 Y110.63 E7.09723
G1 X112.037 Y110.698 E7.09961
G1 X111.905 Y110.79 E7.10199
G1 X111.79 Y110.905 E7.1044
G1 X111.698 Y111.037 E7.10679
G1 X111.63 Y111.183 E7.10917
G1 X111.588 Y111.34 E7.11158
G1 X111.574 Y111.5 E7.11396
G1 X111.588 Y111.66 E7.11634
G1 X111.63 Y111.817 E7.11875
G1 X111.698 Y111.963 E7.12113
G1 X111.79 Y112.095 E7.12352
G1 X111.905 Y112.21 E7.12592
G1 X112.037 Y112.302 E7.12831
G1 X112.183 Y112.37 E7.13069
G1 X112.34 Y112.412 E7.1331
G1 X112.5 Y112.426 E7.13548
G1 X112.66 Y112.412 E7.13786
G1 X112.817 Y112.37 E7.14027
G1 X112.963 Y112.302 E7.14265
G1 X113.095 Y112.21 E7.14504
G1 X113.21 Y112.095 E7.14745
G1 X113.302 Y111.963 E7.14983
